public/icons/camera.svg

<svg width="20" height="18" viewBox="0 0 20 18" fill="none" xmlns="http://www.w3.org/2000/svg">
<path fill-rule="evenodd" clip-rule="evenodd" d="M5.19403 1.83152C5.59598 1.10099 6.03325 0.612646 6.6821 0.35439C7.8711 -0.11839 12.1295 -0.11839 13.3176 0.354485C13.9661 0.612601 14.4035 1.10086 14.8058 1.83124L15.258 2.69839C15.2683 2.71557 15.2778 2.73068 15.2864 2.74368L15.3248 2.79619C15.5308 3.02069 15.8756 3.15632 16.1032 3.15632C18.2552 3.15632 20.0002 4.90091 20.0002 7.05232V12.8473C20.0002 15.5915 17.7744 17.8173 15.0302 17.8173H4.97021C2.22532 17.8173 0.000213623 15.5918 0.000213623 12.8473V7.05232C0.000213623 4.90091 1.74519 3.15632 3.89721 3.15632C4.12399 3.15632 4.46929 3.02049 4.67565 2.79619C4.67978 2.7917 4.68516 2.78501 4.69166 2.77615L4.74309 2.69727L5.19403 1.83152ZM13.4919 2.5549C13.2419 2.10106 13.016 1.84891 12.7629 1.74815L12.6435 1.70848C11.6144 1.4176 8.03462 1.43082 7.23657 1.74815C6.98355 1.84886 6.7579 2.10087 6.50823 2.55462L6.12337 3.29872L6.02865 3.47015C5.94957 3.60168 5.87048 3.7127 5.78016 3.81111C5.2737 4.36161 4.52446 4.65632 3.89721 4.65632L3.73312 4.66185C2.48596 4.74618 1.50021 5.78453 1.50021 7.05232V12.8473C1.50021 14.7635 3.0538 16.3173 4.97021 16.3173H15.0302C16.946 16.3173 18.5002 14.7631 18.5002 12.8473V7.05232C18.5002 5.72941 17.4269 4.65632 16.1032 4.65632L15.9291 4.64904C15.3406 4.60061 14.6795 4.31148 14.2197 3.81044C14.1305 3.71334 14.0519 3.6031 13.9733 3.47269C13.962 3.45398 13.948 3.42935 13.9319 3.4002L13.8158 3.18246L13.4919 2.5549Z" fill="#19191B"/>
<path d="M15.5045 5.5C16.0568 5.5 16.5045 5.94772 16.5045 6.5C16.5045 7.01284 16.1185 7.43551 15.6211 7.49327L15.5045 7.5C14.9432 7.5 14.4955 7.05228 14.4955 6.5C14.4955 5.98716 14.8816 5.56449 15.3789 5.50673L15.5045 5.5Z" fill="#19191B"/>
<path fill-rule="evenodd" clip-rule="evenodd" d="M6.07092 10.128C6.07092 7.95782 7.82971 6.19904 9.99992 6.19904C12.1701 6.19904 13.9289 7.95782 13.9289 10.128C13.9289 12.2982 12.1701 14.057 9.99992 14.057C7.82971 14.057 6.07092 12.2982 6.07092 10.128ZM12.4289 10.128C12.4289 8.78625 11.3417 7.69904 9.99992 7.69904C8.65814 7.69904 7.57092 8.78625 7.57092 10.128C7.57092 11.4698 8.65814 12.557 9.99992 12.557C11.3417 12.557 12.4289 11.4698 12.4289 10.128Z" fill="#19191B"/>
</svg>

<svg xmlns="http://www.w3.org/2000/svg" width="20" height="18" fill="none"><path fill="#19191B" fill-rule="evenodd" d="M5.194 1.832c.402-.731.84-1.22 1.488-1.478 1.19-.472 5.447-.472 6.636 0 .648.259 1.085.747 1.488 1.477l.452.867.028.046.039.052c.206.225.55.36.778.36A3.897 3.897 0 0 1 20 7.052v5.795a4.97 4.97 0 0 1-4.97 4.97H4.97A4.97 4.97 0 0 1 0 12.847V7.052a3.897 3.897 0 0 1 3.897-3.896c.227 0 .572-.136.779-.36a.245.245 0 0 0 .016-.02l.051-.079.451-.865Zm8.298.723c-.25-.454-.476-.706-.73-.807l-.119-.04c-1.029-.29-4.608-.277-5.406.04-.253.1-.48.353-.729.807l-.385.744-.094.171c-.08.132-.159.243-.249.341-.506.55-1.256.845-1.883.845l-.164.006A2.397 2.397 0 0 0 1.5 7.052v5.795a3.47 3.47 0 0 0 3.47 3.47h10.06a3.47 3.47 0 0 0 3.47-3.47V7.052a2.397 2.397 0 0 0-2.397-2.396l-.174-.007a2.694 2.694 0 0 1-1.71-.839 2.069 2.069 0 0 1-.287-.41l-.116-.218-.324-.627Z" clip-rule="evenodd"/><path fill="#19191B" d="M15.505 5.5a1 1 0 0 1 .116 1.993l-.117.007a1 1 0 0 1-.126-1.993l.127-.007Z"/><path fill="#19191B" fill-rule="evenodd" d="M6.07 10.128a3.929 3.929 0 1 1 7.858 0 3.929 3.929 0 0 1-7.857 0Zm6.359 0a2.429 2.429 0 1 0-4.857 0 2.429 2.429 0 0 0 4.857 0Z" clip-rule="evenodd"/></svg>
